X:1
T:Kindertotenlieder
T:Nun seh' ich wohl, warum so dunkle Flammen
T:Kindertotenlieder
T:Friedrich Rückert (English words by John Bernhoff)
T:Gustav Mahler
T:2. Nun seh' ich wohl, warum so dunkle Flammen
T:OpenScre (CC0)
T:OpenScre (CC0)
T:OpenScre (CC0)
T:OpenScre (CC0)
T:OpenScre (CC0)
T:OpenScre (CC0)
T:OpenScre (CC0)
C:Gustav Mahler
Z:Friedrich Rückert
Z:OpenScre (CC0)
%%score 1 { ( 2 4 6 ) | ( 3 5 7 ) }
L:1/8
Q:1/4=56
M:4/4
K:Eb
V:1 treble nm="Gesang\nVoice"
V:2 treble nm="Piano"
V:4 treble 
V:6 treble 
V:3 bass 
V:5 bass 
V:7 bass 
V:1
"^Ruhig, nicht schleppend""^Tranquillo, ma non strascinando" z8 | z8 | z8 | z8 | z2!pp! (B2 c2 d2 | %5
w: ||||Nun seh' ich|
w: ||||Ah, now I|
 e6 d2 | c2 =B2 c2 d2 | c2 _B2) z2 B2 | B A G A d c B A | G2 F2 z2 z =E | %10
w: wohl, war-|um so dunk- le|Flam- men ihr|sprüh- tet mir in man- chen Au- gen-|blik- ke, o|
w: know why|oft I caught you|gaz- ing, pure|child- like love with sweet- est sad- ness|mingl- ing, ye|
!<(!!>(! !>!=E4!<)!!>)! F4 | z4 z2!<(! G2!<)! |!pp! (G4 A4) | z8 || %14
w: Au- gen!|O|Au- gen!||
w: bright eyes!|Ye|bright eyes!||
[K:C]"^\nzart"!p!"^dolce" (G4 A2 B2 | c2 B2 !>!A2 E2 | G2 F2) z2 F2 | E F B A ^G A A, ^C | %18
w: Gleich- sam, um|voll in ei- nem|Bli- cke zu|drän- gen eu- re gan- ze Macht zu-|
w: Twin stars in|a- zure splen- dour|blaz- ing, each|look love's flames with- in my bo- som|
 E2 D2 z4 | z8 | z4 z2!p! (G2 ||[K:Eb] G6 F2 | E4)"^steigernd""^animando" z2!<(! E2!<)! | %23
w: sam- men.||Doch|ahnt' ich|nicht, weil|
w: kindl- ling.||I|knew not|then, dark|
 c3 c c2 G2 |!>(! B2!>)! A2 z2 A2 |"^fliessend""^scorrevole" =A3 A =B2 ^c2 | d3 ^c =B2 ^F2 | %27
w: Ne- bel mich um-|schwam- men, ge-|wo- ben vom ver-|blen- den- den Ge-|
w: mists my sight en-|veil- ing, one|beam from you, my|tear- ful, fond eyes|
 =A2 ^G2 z"^rit."!<(! =G _A =A!<)! || %28
w: schik- ke, daß sich der|
w: daz- ing, that ye so|
[K:C]"^Etwas bewgter"[Q:1/4=65]"^Poco più moto" A3!<(! G A B c d!<)! | %29
w: Strahl be- reits zur Heim- kehr|
w: soon your flight were home- ward|
!>(! !>!f2!>)! e2 z2!<(! d2!<)! |!>(! !>!d4!>)! z2!<(! c2!<)! |!>(! !>!c4!>)! z2 (B2 | B3 A B2 c2 | %33
w: schi- cke, dort-|hin, dort-|hin, von|wan- nen al- le|
w: wing- ing, to|realms a-|bove, the|source of light, your|
!p!!<(! E6 G2!<)! |!>(! (!>!B6!>)! A2) | D2) z2 z4 |[M:3/2] z12 |[M:4/4] z2 (G2 ^G2 =A2 | %38
w: Strah- len|stam- *|men.||Ihr woll- tet|
w: glances _|rais- *|ing.||You fain would|
"^riten." A4!>(! _B4!>)! | c4 d4 ||[K:D]!pp!"^Tempo I"[Q:1/4=56] d6 c2 | c4 B4) | %42
w: mir mit|eu- rem|Leuch- ten|sa- gen:|
w: tell me|by your|star- like|glow- ing.|
 z2!pp! (^A2 B2 c2 | e2!<(! d2 c2 B2!<)! |!>(! B4!>)! _B4) | z8 | z8 | %47
w: Wir möch- ten|nah dir blei- ben|ger- ne!|||
w: We'd glad- ly|stay with thee, not|grieve thee!|||
 z2"^nicht eilen""^non accel."!>(! ^F2 G2!>)! A2 ||[K:Bb]!pp! B6 A2 | G2 ^F2 G2 A2 | G2 =F2 z4 | %51
w: Doch ist uns|das vom|Schick- sal ab- ge-|schla- gen.|
w: A- las, 'tis|Fate de-|crees, and we must|leave thee.|
 z8 | z8 | F4 F2 E2 | _D4 z2 D2 | !>!B3 B B2 F2 | _A2 _G2 z4 | z8 | z8 | z4 z!p! G"^rit." ^G =A || %60
w: ||Sieh' uns nur|an, denn|bald sind wir dir|fer- ne!|||Was dir nur|
w: ||Gaze on us|now, for|soon from hence we're|go- ing!|||What now are|
[K:C]!<(! A3 G A B c d!<)! |!>(! !>!f2!>)! e2 z2[Q:1/4=65]"^Poco più moto"!<(! d2!<)! | %62
w: Au- gen sind in die- sen|Ta- gen: in|
w: eyes on earth, up- on thee|gaz- ing will|
"^Etwas bewegter"!>(! (!>!d2!>)! ^G4)!<(! A2!<)! |!>(! (!>!c2!>)! ^F4) G2 |!<(! B3 A B2 c2!<)! | %65
w: künft'- * gen|Näch- * ten|sind es dir nur|
w: then _ be|stars _ at|night in a- zure|
!pp!"^subito" (e6 c2) | G4 z4 | z8 |[M:2/4] z4 ||[K:Eb][M:4/4] z8 | z8 | z8 | z8 | z8 |] %74
w: Ster- *|ne.||||||||
w: glow- *|ing.||||||||
V:2
 z2!<(! (B,2 C2 D2)!<)! |!>(! (!arpeggio!!>!D4!>)! E4) | %2
"^non riten.\nnicht zurückhaltend" z!<(! (^FG=A)!<)! !arpeggio![DA]4- |!>(! (A4!>)! B4-) | %4
 (B2!pp! G2 =A2 B2) |!pp! [E_Ac]8- | [EAc]4 ^F4 | [D=F_A]8 | (BAG!<(!A!<)!!>(! [Ad]!>)!cBA) | %9
 (G2 F2) z (^CD!<(!=E)!<)! |!>(! (=E4!>)! F4) | z2 (=E2 F2!<(! G2)!<)! |!pp! (G4 A4) | %13
 z2!pp! (G2 A2 =A2) ||[K:C] (!arpeggio!A4 G4) | (F4 E4) | (E2 D2) z!<(! (A,B,^C)!<)! | %17
!>(! (^C4!>)! D4) | z4 z!<(! (^CDE)!<)! |!p! ([=C-E]8 |!>(! !>![CF]8)!>)! || %21
[K:Eb]!p! (([EG]6 [DF]2)) | [CE]8 |!>(! ([=EAc]6!>)! [_B,EG]2) | %24
 ((([B,=EB]2 [A,FA]2))) z2!<(! (^c2!<)! |"_fliessend" !>!d2) !>!^c2 !>!=B2 !>!=A2 | %26
 (^G2!>(! ^F2 G2 =A2!>)! |!p! =B,4) z"^rit."!<(! (^A,B,C)!<)! ||[K:C]!>(! (^C2!>)! D4!<(! EF)!<)! | %29
!<(! ([C^G]6!<)! [DGd]2) |!>(! (!>![D^Gd]2 [^G,D^G]4!>)! [A,^DA]2) | %31
!>(! (!>![C=Gc]2 [^F,C^F]4!>)! [G,^CG]2) | !arpeggio!B3 A!<(! B2!<)! c2 | %33
 !arpeggio!!>!e3!>(! !>!c !>!G2!>)! !>!E2 | [C_E]4 z!p!!<(! (D_E!<)!=E) | (!arpeggio!E4 F4) | %36
[M:3/2] z (E!<(!FG)!<)!!>(! (G4!>)! _A4) |[M:4/4] z2!>(! (G2 ^G2!>)! =A2) |!pp! (A4 _B4 | c4 d4) || %40
[K:D]!pp! ([DFd]6 c2) | (c4 B4) | x8 | x8 |!>(! (^D4!>)! E4) | z!<(! (^DE^F)!<)! ([=D-F]4 | %46
!>(! [DG]8)!>)! | z2!>(! (F2 G2!>)! A2) ||[K:Bb]!pp! (!arpeggio![B,EGB]6 A2 | G2 ^F2 G2 A2) | %50
 (G2 =F2) z2 (!>!F2- |!<(! FE!<(!DE!<)! !>!=A!>!G!>!F!>!E)!<)! | (!>!D2 C6) | %53
 (!arpeggio![_DF]6 [CE]2 | [B,_D]8) | (!>![B,_G]6 [_A,=D]2) | ([_A,D]2 [_G,E]2) z2 !>!^F2 | %57
 !arpeggio!!>!=G4 !>!=A2 x2 | !>![C=Ec]3 !>!=B !>!A2 !>!=E2 | (!>!G2 F2) z!pp! (G"^rit."^G=A) || %60
[K:C] [FA]8 | !arpeggio![^G,C^G]6!<(! [G,D]2 | (!>![A,D]6!<)! [A,C]2) | %63
!>(! (!arpeggio!!>!C6!>)! B,2) |!<(! (B,3 A, B,2!<)! C2) |!pp!"_subito" =E8 | %66
 e2 (!>!C2 !>!D2 !>!E2) | (!arpeggio!!>!E4 F4) | %68
[M:2/4]"^nicht zurückhaltend""^non riten." z!<(! (EF!<)!G) ||[K:Eb][M:4/4]!pp! (G4 _A4) | %70
 z2"^rit."!>(! (!>!=B2!>)! c2 d2) |!pp! (!arpeggio!!>![E^Fd]8 | [EGe]8-) | [EGe]2 z2 z4 |] %74
V:3
!p! z8 | [G,,^C,B,]8 | z4 [G,,D,B,]4- |!p! [G,,D,B,]8- | [G,,D,B,]2 z2 z4 | %5
 (!arpeggio![G,,,G,,]E,_A,C[I:staff -1] E2)[I:staff +1] z2 | z (E,A,C[I:staff -1] E4) | %7
[I:staff +1] [G,,,G,,](D,F,_A,[I:staff -1] D2)[I:staff +1] z2 | G,,4 (=B,2 !arpeggio![C,C]2) | %9
 (D,,D,F,A, B,2) ([=E,A,B,]2 | [F,A,B,]8-) | [A,B,]8 | [_D,F,]8- | [D,F,]8 || %14
[K:C]!p! (C,,,C,,G,,E, G,2) z2 | (A,,,E,,C,E, G,2) z2 | (D,,A,,C,D, A,2) z2 | [F,A,]8 | [=F,^G,]8 | %19
 [_A,,=C,]8- | [A,,C,]8 ||[K:Eb] (G,,,G,,D,F, =B,2) z2 | (A,,,A,,!<(!E,A, C2)!<)! z2 | %23
 (C,,C,=E,A, C2) z2 | (_D,,A,,_D,F, A,2) z2 |"^scorrevole" [^C,=A,-]8 | (([=B,,A,]8 | %27
 [D,=F,]4)) F,4 ||[K:C] (5:4:5(G,,,/G,,/D,/F,/B,/) z2 z4 | [C,^G,]6 z2 | %30
 (F,,/C,/F,/C/) z2 z2 !arpeggio![B,,,B,,]2 | (!>!E,,/B,,/E,/G,/) z2 z2 !arpeggio![A,,,A,,]2 | %32
 [D,,A,,^F,]6 !arpeggio![_A,,,_A,,]2 | [G,,E,C]8 | [G,,^F,]4 z4 | [D,,D,=F,G,]8 | %36
[M:3/2] z4 [_D,,_D,]8 |[M:4/4] z8 | z2"^riten." (_B,,2 F,2 _A,2- | [B,,A,]8) || %40
[K:D] (A,,,/A,,/D,/F,/ A,/[I:staff -1]D/F/A/) (d/A/F/D/[I:staff +1] A,/F,/D,/A,,/) | %41
 (A,,,A,,/D,/ G,/[I:staff -1]B,/D/G/) (B/G/D/B,/[I:staff +1] G,/D,/B,,/) z/ | %42
 (A,,,A,,/D,/ G,/[I:staff -1]B,/D/G/)[I:staff +1] z/ (A,,/D,/G,/[I:staff -1] B,/D/G/B/) | %43
[I:staff +1] G,4 z!<(![I:staff -1] (^CD!<)!^D) |[I:staff +1] !arpeggio![C,G,A,]8 | %45
 z4 [_B,,D,G,]4- | [B,,D,G,]8 | z8 ||[K:Bb] (D,,D,G,B,[I:staff -1] E2)[I:staff +1] z2 | D,8 | D,8 | %51
 !arpeggio![G,B,]4 G,4 |!>(! (_G,4 =G,2 _A,2)!>)! |!pp! =A,8 | (_G,,,_G,,_D,_G, B,2) z2 | %55
 (B,,,B,,=D,_G, B,2) z2 | (_C,,_G,,_C,E, _G,2) z2 | (=B,,,=B,,=E,=G, =B,2) z2 | %58
 (A,,,A,,=E,G, C2) z2 | (D,,D,F,_A, C2) z2 ||[K:C] (G,,,G,,D,F,) x4 | %61
 (C,,,C,,C,E, ^G,2) [E,,,E,,]2 | (F,,,C,,F,,C, F,2) !arpeggio![B,,,B,,]2 | [E,G,]6 [^C,G,]2 | %64
 !arpeggio![D,^F,]6 [_E,^F,]2 | !arpeggio![=E,G,]8 | z4!p! [^C,G,_B,]4 | [D,F,G,=B,]8 | %68
[M:2/4] z4 ||[K:Eb][M:4/4] [_D,F,=B,]8 | z8 |!ped! (C,,_A,,C,E, _G,A,C!ped-up!E) |"^morendo" C8- | %73
 C2 z2 z4 |] %74
V:4
 x8 | x8 | x8 | D8- | D2 x6 | x8 | x8 | x8 | [CE]4 E2 E2 | [A,B,]4 x4 | D8- | D4 C4- | C8 | x8 || %14
[K:C] [G,E]8 | C8 | [A,C]4 x4 | x8 | x8 | x8 | x8 ||[K:Eb] =B,4 x4 | x8 | x8 | x8 | ^F8 | D8 | %27
 x8 ||[K:C] [F,B,]8 | x8 | x8 | x8 | [D^F]6 [_EF]2 | [=EG]8 | x8 | B,8 |[M:3/2] x4 [F,B,]8 | %37
[M:4/4] x8 | [DF]8- | [DF]8 ||[K:D] x8 | [DG]8 | x8 | x8 | x8 | x8 | x8 | x8 ||[K:Bb] x8 | E4 ^C4 | %50
 !arpeggio![A,=C_E]8 | x4 =B,2 C2 | x8 | x8 | x8 | x8 | x8 | [=G,=B,=E]2 x2 x2 !>!=B2 | x8 | %59
 [_A,C]4 x4 ||[K:C] (C4 (B,2[I:staff +1] A,2)) |[I:staff -1] x4 x2 x2 | x x!>(! x x x x!>)! x2 | %63
 x8 | x8 | x8 | x8 | x8 |[M:2/4] x4 ||[K:Eb][M:4/4] x8 | x8 | x8 | x8 | x8 |] %74
V:5
 x8 | x8 | x8 | x8 | x8 | x8 | x8 | x8 | x8 | x8 | x8 | (F,4 _E,4) | x8 | x8 ||[K:C] x8 | x8 | x8 | %17
 z4 !arpeggio![F,,,F,,]2 z2 | (_B,,,D,F,^G, D2) z2 | x8 | x8 ||[K:Eb] x8 | x8 | x8 | x8 | x8 | x8 | %27
 x4 !arpeggio![_D,,_D,]4 ||[K:C] x8 | x8 | x8 | x8 | x8 | x8 | x8 | x8 |[M:3/2] x12 |[M:4/4] x8 | %38
 [_B,,,_B,,_A,]8 | x8 ||[K:D] x8 | x8 | x8 | [^A,,,^A,,]2 z2 [B,,,B,,]2 z2 | x8 | x8 | x8 | x8 || %48
[K:Bb] x8 | x8 | D,,2 z2 z4 | [D,,D,]2 z2 E,,2 z2 | E,8 | ([F,,,F,,]=A,,_D,F, A,2) z2 | x8 | x8 | %56
 x8 | x8 | x8 | x8 ||[K:C] x8 | x8 | x6 ^D,2 | (E,,,E,,B,,E, G,2) !arpeggio![A,,,A,,]2 | %64
 D,,6 _A,,,2 | (G,,,G,,C,E, G,[I:staff -1]CEG) | x8 | x8 |[M:2/4] x4 ||[K:Eb][M:4/4] x8 | x8 | x8 | %72
 x8 | x8 |] %74
V:6
 x8 | x8 | x8 | x8 | x8 | x8 | x8 | x8 | x8 | x8 | x8 | x8 | x8 | x8 ||[K:C] x8 | x8 | x8 | x8 | %18
 x8 | x8 | x8 ||[K:Eb] x8 | x8 | x8 | x8 | x8 | x8 | x8 ||[K:C] x8 | x8 | x8 | x8 | x8 | x8 | x8 | %35
 x8 |[M:3/2] x12 |[M:4/4] x8 | x8 | D4 x4 ||[K:D] x8 | x8 | x8 | x8 | x8 | x8 | x8 | x8 || %48
[K:Bb] x8 | B,8 | x8 | x8 | x8 | x8 | x8 | x8 | x8 | x8 | x8 | x8 ||[K:C] x8 | x8 | x8 | x8 | x8 | %65
 x8 | x8 | x8 |[M:2/4] x4 ||[K:Eb][M:4/4] x8 | x8 | x8 | x8 | x8 |] %74
V:7
 x8 | x8 | x8 | x8 | x8 | x8 | x8 | x8 | x8 | x8 | x8 | x8 | x8 | x8 ||[K:C] x8 | x8 | x8 | x8 | %18
 x8 | x8 | x8 ||[K:Eb] x8 | x8 | x8 | x8 | x8 | x8 | x8 ||[K:C] x8 | x8 | x8 | x8 | x8 | x8 | x8 | %35
 x8 |[M:3/2] x12 |[M:4/4] x8 | x8 | x8 ||[K:D] x8 | x8 | x8 | x8 | x8 | x8 | x8 | x8 ||[K:Bb] x8 | %49
 x8 | x8 | x8 | =A,,2 _A,,2 G,,2 _G,,2 | x8 | x8 | x8 | x8 | x8 | x8 | x8 ||[K:C] x8 | x8 | x8 | %63
 x8 | x8 | x8 | x8 | x8 |[M:2/4] x4 ||[K:Eb][M:4/4] x8 | x8 | x8 | x8 | x8 |] %74

